!!!COM: Gomółka, Mikołaj
!!!CDT: ~1535-after 1591
!!!OTL@POL: Ciebie ja
!!!OTL@LAT: Diligam te Domine
!!!AGn: Motet; Psalm
!!!SCn: Gom2018
!!!SCn: Gom2018
!!!voices: 4
**kern	**kern	**kern	**kern
*staff4	*staff3	*staff2	*staff1
*Ivox	*Ivox	*Ivox	*Ivox
*I"Bassus	*I"Tenor	*I"Altus	*I"Cantus
*I'B	*I'T	*I'A	*I'C
*clefF4	*clefGv2	*clefGv2	*clefG2
*k[b-]	*k[b-]	*k[b-]	*k[b-]
*M2/1	*M2/1	*M2/1	*M2/1
*met(C|)	*met(C|)	*met(C|)	*met(C|)
=1-	=1-	=1-	=1-
1G	1Bn	1d	1g
1C	1c	1e	1g
=2	=2	=2	=2
1F	1c	1f	1a
2r	2r	2r	2r
2D	2d	2f	2a
=3	=3	=3	=3
2G	2d	2g	2bn
2C	2e	2e	2cc
1D	4f#	1d	1a
.	2g	.	.
.	4f#	.	.
=4	=4	=4	=4
2G	2g	2d	2bn
2A	2e	2a	2cc
2A	2c#	2a	2a
2F#	[2d	2a	2a
=5	=5	=5	=5
2G	2d]	2g	1b-
2GG	2d	4f#	.
.	.	4e	.
1D	1d	1f#	1a
=6	=6	=6	=6
1AA	1c#	1e	1a
1D	1d	1f#	1a
=7	=7	=7	=7
1GG	1d	1g	1bn
2r	2r	2r	2r
2BB-	2B-	2f	2dd
=8	=8	=8	=8
2.E-i	2B-	2.g	2b-
.	1B-	.	2b-
4D	.	4f	.
4C	.	4e-	1ee-i
4BB-	.	4d	.
2C	2A	2e-	.
=9	=9	=9	=9
2BB-	2B-	2f	2dd
2FF	2c	2f	2cc
2BB-	2d	2f	2b-
2C	4c	2e-	4a
.	4B-	.	4g
=10	=10	=10	=10
0D	2.A	2.d	2.f#
.	4G	8cL	4e
.	.	8B-J	.
.	4A	4A	4f#
.	4B-	4G	2g
.	2A	4d	.
.	.	4c	4f#
=11	=11	=11	=11
0GG	0G	0Bn	0g
==	==	==	==
*-	*-	*-	*-
!!!CNT: Polish
!!!OCY: Poland
!!!LYR: Jan Kochanowski (1530-1584/08/22)
!!!GTL: Melodiae na Psałterz Polski
!!!EFL: 18/150
!!!PPR: Łazarz Andrysowicz
!!!PPP: Kraków
!!!PDT: 1580
!!!YEC: 2015 Marcin Konik
!!!ENC: Marcin Konik
!!!END: 2015/03/06
!!!EED: Marcin Konik
!!!EEV: 2015/03/06
!!!ONB: Translated from MusicXML and edited on 2015/03/06 by Marcin Konik
!!!CharacterEncoding: utf-8
!!muse2ps: i2I150v85,85,85,150Q16
!!title: @{OTL}, @{GTL}, ed. @{ENC}
